synths/iLTC.svg

<svg width="480" height="480" viewBox="0 0 480 480" fill="none" xmlns="http://www.w3.org/2000/svg"><mask id="mask0-157057" maskUnits="userSpaceOnUse" x="0" y="0" width="480" height="480"><circle cx="240" cy="240" r="240" fill="url(#paint0_linear-195728)"/></mask><g mask="url(#mask0-157057)"><circle cx="240" cy="240" r="240" fill="#FF1E39"/><circle cx="240" cy="240" r="208" fill="#fff"/></g><circle cx="240" cy="240" r="184" fill="#0E052F"/><path d="M240 424c101.62 0 184-82.38 184-184S341.62 56 240 56 56 138.38 56 240s82.38 184 184 184z" fill="#BFBBBB"/><path fill-rule="evenodd" clip-rule="evenodd" d="M175.91 276.961l-16.41 6.371 7.912-31.728 16.606-6.67L207.95 148h58.983l-17.468 71.254 16.214-6.566-7.82 31.624-16.41 6.567-9.752 40.055H320.5L310.461 332H162.398l13.512-55.039z" fill="#fff"/><defs><linearGradient id="paint0_linear-195728" x1="240" y1="0" x2="240" y2="701.818" gradientUnits="userSpaceOnUse"><stop stop-color="#08021E"/><stop offset="1" stop-color="#1F0777"/></linearGradient></defs></svg>

<svg width="480" height="480" viewBox="0 0 480 480" fill="none" xmlns="http://www.w3.org/2000/svg">
<mask id="mask0-157057" mask-type="alpha" maskUnits="userSpaceOnUse" x="0" y="0" width="480" height="480">
<circle cx="240" cy="240" r="240" fill="url(#paint0_linear-195728)"/>
</mask>
<g mask="url(#mask0-157057)">
<circle cx="240" cy="240" r="240" fill="#FF1E39"/>
<circle cx="240" cy="240" r="208" fill="white"/>
</g>
<circle cx="240" cy="240" r="184" fill="#0E052F"/>
<path d="M240 424C341.62 424 424 341.62 424 240C424 138.38 341.62 56 240 56C138.38 56 56 138.38 56 240C56 341.62 138.38 424 240 424Z" fill="#BFBBBB"/>
<path fill-rule="evenodd" clip-rule="evenodd" d="M175.91 276.961L159.5 283.332L167.412 251.604L184.018 244.934L207.95 148H266.933L249.465 219.254L265.679 212.688L257.859 244.312L241.449 250.879L231.697 290.934H320.5L310.461 332H162.398L175.91 276.961Z" fill="white"/>
<defs>
<linearGradient id="paint0_linear-195728" x1="240" y1="0" x2="240" y2="701.818" gradientUnits="userSpaceOnUse">
<stop stop-color="#08021E"/>
<stop offset="1" stop-color="#1F0777"/>
</linearGradient>
</defs>
</svg>
